X: 73
T: les Drapeaux
%R: march, reel
B: Stewart "A Select Collection of Airs, Jigs, Marches and Reels", ca.1784, p.35 #73
F: http://imslp.org/wiki/A_Select_Collection_of_Airs,_Jigs,_Marches_and_Reels_%28Various%29
Z: 2017 John Chambers <jc:trillian.mit.edu>
N: The 2nd strain has 18 (10+8) bars.
M: C
L: 1/8
K: G
B2c2 |\
d4 cBAB | G4 c2B2 | A2GF G2A2 | B2G2 B2c2 |\
d4 cBAB | G4 c2B2 | A2G2 BAGF | G4 :|
|: g2f2 |\
e2^d2 e2f2 | B4 e2^d2 | e2f2 g2ag | f2e2 g2f2 |\
e2^d2 e2f2 | B4 e2^d2 | e2f2 g2ag | f2e2 g2d2 | B2G2 g2d2 |
B2G2 B2c2 | d4 cBAB | G4 c2B2 | A2GF G2A2 |\
B2G2 B2c2 | d4 cBAB | G4 c2B2 | A2G2 BAGF | G4 :|
